X: 1
T: Niall Thow's Reel
C: Ian Thow
R: reel
Z: 2010 John Chambers <jc:trillian.mit.edu>
M: C|
L: 1/8
K: D
A2 \
| "D"D2F2 A2d2 | "D"f2fg f2d2 | "A7"e2ef e2c2 | "D"d2de "(A7)"fdAF \
| "D"D2F2 A2d2 | "D"f2fg f2d2 | "A7"e2ef g2A2 | "A7"e2d2 "D"d4 |]
[|"A7"e3c A2e2 | "D"f3d A2f2 | "G"g3f e2b2 | "D"a2AB "A7"cdef \
| "A7"g2ge A2e2 | "D"f2fd A2f2 | "A7"e2ef gecA | "A7"e2d2 "D"d2 |]
